X: 2
T: Marechiare
C: Francesco Paolo Tosti
M: 2/4
L: 1/8
K: Em
| z4 | z2 BB \
| "Em"e2 ef | "Am"gf e>^d \
| "Em"e2 ee | ee fe \
| "Am"dc Bc | "B7"B>A G>F \
| "Em"E4- | Ez3 |
| z4 | z2 BB \
| "Em"e2 ef | "Am"gf e>^d \
| "Em"e2 ee | ee fe \
| "G"d>=c de | "D7"d>c B>A |
| "G"Gz BB | "B7"B2 BB \
| "Em"B^A Bc | "B7"B>A G>F \
| "Em"E4- | Ez3 \
| z4 | z2B B>B | [K:E]
| "E"e2 ef | g2 f>e \
| "A"c2 cc | c2 de \
| "B7"dc B>c | c2 B2 \
| "E"G2 ee | "E7"e2 fg |
| "A"f2 e2 | "E7"e2 fg \
| "A"ee ee | f2 ef \
| "E"ed c>B | "B7"d2 B2 \
| "E"GB BB | "B7" B2 BB | [K:Em]
| "Em"B>^A B=c | "B7"B>A G>F \
| "Em"E4- | Ez e2 \
| "B7"^d3 =c | B{B^d}c B{Bd}c \
| "Em"B4- | Bz e2 \
| "B7"^d3 =c | B{B^d}c B{Bd}c |
| "Em"B4- | Bg gg \
| "F"=f3 c | A.f .f.f \
| "Em"e3 B | G2 B2 \
| "Em"B>^A B=c | "B7"B>A G>F \
| "Em"E4- | Ez z2 |]
